X:1
T:Giesu clemente
T:Giovanni Animuccia
T:Source : Primo libro delle Laude spirituali a tre voci---Roma---A.Gardano---1583. Editor : André Vierendeels (24/11/17) Notes : Original clefs : G2, C1, C3 Editorial accidentals above the staff 
T:Giesu clemente
T:©
T:©
C:Giovanni Animuccia
Z:©
%%score [ 1 2 3 ]
L:1/8
Q:1/4=120
M:4/4
K:F
V:1 treble nm="Soprano" snm="S"
V:2 treble nm="Alto" snm="A"
V:3 treble-8 nm="Tenor" snm="T"
V:1
"^1)" F8 | F4 F2 F2- | F2 F2 G4 | A4 z2 A2 | c3 c c2 c2 | d8 | c4 z2 d2 | d2 d2 c2 B2 | A4 G4 | %9
w: Gie-|su cle- men-|* t'e pi-|o, O|a- ni- ma di-|let-|ta, al|sa- cro'al- tar' t'as-|pet- ta,|
w: Quell'|in- cli- to|_ Si- gno-|re, che|tut- to'il mon- do|reg-|ge, hog-|gi co- me pa-|sto- re|
 z2 A4 A2 | B4 G2 F2 | G4 A2 c2- | c2 c2 c4 | B2 A2 G4 | F8 :| %15
w: per ci-|bar- ti di|Di- o, per|_ ci- bar-|ti di Di-|o.|
w: a pa-|scer vien' sua|greg- ge, a|_ pa- scer|vien' sua greg-|ge.|
V:2
"^2)""^1)" C8 | D4 C2 D2- | D2 F2 E4 | F4 z2 F2 | A3 A A2 A2 | B8 | A4 z2 B2 | B2 B2 G2 G2- | %8
w: Gie-|su cle- men-|* t'e pi-|o, O|a- ni- ma di-|let-|ta, al|sa- cro'al- tar' t'as-|
w: E|per pa- stu-|* ra'e- leg-|ge, la|sua car- ne'am- mi-|ran-|da, O|so- a- ve vi-|
"^#" G2 F2 G4 |"^-natural" z2 F4 F2 | D4 E2 F2- | F2 E2 F2 A2- | A2 A2 G4 | G2 F4 E2 | F8 :| %15
w: * pet- ta,|per ci-|bar- ti di|_ Di- o, per|_ ci- bar-|ti di Di-|o.|
w: * ven- da,|pren- der|per ci- bo|_ Di- o, pren-|* der per|ci- bo Di-|o.|
V:3
"^3)""^1)""^4)" F8 | B4 A2 B2- | B2 d2 c4 | F4 z2 F2 | f3 f f2 f2 | B8 | f4 z2 B2 | B2 B2 c2 G2 | %8
w: Gie-|su cle- men-|* t'e pi-|o, O|a- ni- ma di-|let-|ta, al|sa- cro'al- tar' t'as-|
w: Hab-|be le Chie-|* s'an- ti-|ca, la|man- na nel de-|ser-|to, hog-|gi l'a- ni- m'a-|
 d4 G4 | z2 d4 d2 | B4 c2 d2 | c4 F2 f2- | f2 f2 c4 | _e2 f2 c4 | F8 :| %15
w: pet- ta,|per ci-|bar- ti di|Di- o, per|_ ci- bar-|ti di Di-|o.|
w: mi- ca,|con- gio-|na- t'à Dio'per-|mer- to, con-|* gio- na-|t'à Dio'per mer-|to.|

